public/images/img-advant-6.svg

<svg width="32" height="33" viewBox="0 0 32 33" fill="none" xmlns="http://www.w3.org/2000/svg">
<g clip-path="url(#clip0_317_7106)">
<path d="M29.7141 17.582H21.7141C21.083 17.582 20.5713 18.0937 20.5713 18.7249V23.2963C20.5713 23.9274 21.083 24.4392 21.7141 24.4392H29.7141C30.3452 24.4392 30.857 23.9274 30.857 23.2963V18.7249C30.857 18.0937 30.3452 17.582 29.7141 17.582Z" fill="white"/>
<path fill-rule="evenodd" clip-rule="evenodd" d="M1.14258 11.865V29.0078C1.14258 29.614 1.38339 30.1955 1.81205 30.624C2.2407 31.0526 2.82208 31.2935 3.42829 31.2935H25.1426C25.7488 31.2935 26.3302 31.0526 26.7588 30.624C27.1874 30.1955 27.4283 29.614 27.4283 29.0078V24.4364H21.714C21.0828 24.4364 20.5711 23.9246 20.5711 23.2935V18.7221C20.5711 18.0909 21.0828 17.5792 21.714 17.5792H27.4283V13.0078C27.4283 12.4016 27.1874 11.8202 26.7588 11.3916C26.3302 10.9629 25.7488 10.7221 25.1426 10.7221H22.8569V5.00781H7.99972C4.21264 5.00781 1.14258 8.07787 1.14258 11.865Z" fill="#E6F5FB"/>
<path d="M29.7141 17.582H21.7141C21.083 17.582 20.5713 18.0937 20.5713 18.7249V23.2963C20.5713 23.9274 21.083 24.4392 21.7141 24.4392H29.7141C30.3452 24.4392 30.857 23.9274 30.857 23.2963V18.7249C30.857 18.0937 30.3452 17.582 29.7141 17.582Z" stroke="#009CD9" stroke-width="2" stroke-linecap="round" stroke-linejoin="round"/>
<path d="M27.4283 24.4364V29.0078C27.4283 29.614 27.1874 30.1955 26.7588 30.624C26.3302 31.0526 25.7488 31.2935 25.1426 31.2935H3.42829C2.82208 31.2935 2.2407 31.0526 1.81205 30.624C1.38339 30.1955 1.14258 29.614 1.14258 29.0078V11.865C1.14258 8.07787 4.21264 5.00781 7.99972 5.00781H22.8569V10.7221" stroke="#009CD9" stroke-width="2" stroke-linecap="round" stroke-linejoin="round"/>
<path d="M27.4286 17.5798V13.0084C27.4286 12.4022 27.1877 11.8208 26.7591 11.3921C26.3305 10.9635 25.749 10.7227 25.1429 10.7227H22.8571H8" stroke="#009CD9" stroke-width="2" stroke-linecap="round" stroke-linejoin="round"/>
</g>
<defs>
<clipPath id="clip0_317_7106">
<rect width="32" height="32" fill="white" transform="translate(0 0.4375)"/>
</clipPath>
</defs>
</svg>

<svg width="32" height="33" fill="none" xmlns="http://www.w3.org/2000/svg"><g clip-path="url(#clip0_317_7106)"><path d="M29.714 17.582h-8c-.631 0-1.143.512-1.143 1.143v4.571c0 .631.512 1.143 1.143 1.143h8c.631 0 1.143-.512 1.143-1.143v-4.571c0-.631-.512-1.143-1.143-1.143z" fill="#fff"/><path fill-rule="evenodd" clip-rule="evenodd" d="M1.143 11.865v17.143a2.285 2.285 0 002.285 2.286h21.715a2.286 2.286 0 002.285-2.286v-4.572h-5.714a1.143 1.143 0 01-1.143-1.142v-4.572c0-.631.512-1.143 1.143-1.143h5.714v-4.571a2.286 2.286 0 00-2.285-2.286h-2.286V5.008H8a6.857 6.857 0 00-6.857 6.857z" fill="#E6F5FB"/><path d="M29.714 17.582h-8c-.631 0-1.143.512-1.143 1.143v4.571c0 .631.512 1.143 1.143 1.143h8c.631 0 1.143-.512 1.143-1.143v-4.571c0-.631-.512-1.143-1.143-1.143z" stroke="#009CD9" stroke-width="2" stroke-linecap="round" stroke-linejoin="round"/><path d="M27.428 24.436v4.572a2.286 2.286 0 01-2.285 2.286H3.428a2.286 2.286 0 01-2.285-2.286V11.865A6.857 6.857 0 018 5.008h14.857v5.714" stroke="#009CD9" stroke-width="2" stroke-linecap="round" stroke-linejoin="round"/><path d="M27.429 17.58v-4.572a2.286 2.286 0 00-2.286-2.285H8" stroke="#009CD9" stroke-width="2" stroke-linecap="round" stroke-linejoin="round"/></g><defs><clipPath id="clip0_317_7106"><path fill="#fff" transform="translate(0 .438)" d="M0 0h32v32H0z"/></clipPath></defs></svg>
